docs/img/favicon.svg

<svg width="375" height="357" viewBox="0 0 375 357" fill="none" xmlns="http://www.w3.org/2000/svg">
<path d="M247.134 163.884C222.467 147.182 191.389 144.221 163.998 155.969C136.608 167.716 117.33 192.274 112.433 221.656L100.624 292.458C98.6645 304.203 100.502 316.017 105.933 326.612C111.366 337.209 119.885 345.593 130.571 350.866C141.259 356.13 153.106 357.779 164.833 355.638C176.559 353.496 187.061 347.759 195.202 339.051L195.746 338.465C216.327 316.776 245.212 304.506 275.132 304.77C282.849 304.838 290.349 303.33 297.291 300.352C301.066 298.733 304.68 296.676 308.075 294.206C317.71 287.189 324.681 277.468 328.236 266.094C331.787 254.723 331.587 242.769 327.654 231.525C323.722 220.281 316.431 210.809 306.568 204.128L247.134 163.884ZM86.3743 232.745C95.2272 224.134 99.6186 212.148 98.7382 198.997C97.902 186.481 92.3229 174.339 83.026 164.806C73.7304 155.282 61.7292 149.399 49.231 148.239C36.103 147.022 24.0019 151.098 15.169 159.71C-2.60861 177.016 -1.10516 207.486 18.5291 227.645C34.1837 243.678 56.6783 248.39 74.1604 240.893C78.6991 238.953 82.8401 236.19 86.3743 232.745ZM136.836 159.601C163.445 148.189 174.524 114.261 161.533 83.9706C148.539 53.6727 116.319 38.3096 89.7102 49.7219C63.1037 61.133 52.0291 95.0644 65.0234 125.362C78.0145 155.653 110.229 171.012 136.836 159.601ZM225.965 137.353L225.968 137.352C230.546 136.964 235.033 135.842 239.255 134.028C258.66 125.705 271.519 103.483 269.434 78.6995C268.235 64.4332 262.3 51.3501 252.723 41.8629C242.701 31.9293 229.937 27.0728 216.783 28.1876C203.625 29.3032 191.854 36.2399 183.634 47.7178C175.781 58.6817 172.12 72.5782 173.324 86.8421C175.858 116.936 199.473 139.595 225.965 137.353ZM324.841 87.3564L324.83 87.352C300.672 81.6783 275.745 99.3187 269.265 126.684C262.803 154.053 277.186 180.953 301.321 186.649C310.125 188.729 319.035 187.707 327.115 184.241C341.2 178.2 352.772 164.734 356.902 147.325C363.361 119.956 348.981 93.0553 324.841 87.3557L324.841 87.3564Z" fill="#E47537"/>
</svg>

<svg width="375" height="357" fill="none" xmlns="http://www.w3.org/2000/svg"><path d="M247.134 163.884c-24.667-16.702-55.745-19.663-83.136-7.915-27.39 11.747-46.668 36.305-51.565 65.687l-11.809 70.802c-1.96 11.745-.122 23.559 5.309 34.154 5.433 10.597 13.952 18.981 24.638 24.254 10.688 5.264 22.535 6.913 34.262 4.772 11.726-2.142 22.228-7.879 30.369-16.587l.544-.586c20.581-21.689 49.466-33.959 79.386-33.695 7.717.068 15.217-1.44 22.159-4.418a55.542 55.542 0 0 0 10.784-6.146c9.635-7.017 16.606-16.738 20.161-28.112 3.551-11.371 3.351-23.325-.582-34.569-3.932-11.244-11.223-20.716-21.086-27.397l-59.434-40.244Zm-160.76 68.861c8.853-8.611 13.245-20.597 12.364-33.748-.836-12.516-6.415-24.658-15.712-34.191-9.296-9.524-21.297-15.407-33.795-16.567-13.128-1.217-25.23 2.859-34.062 11.471-17.778 17.306-16.274 47.776 3.36 67.935 15.655 16.033 38.15 20.745 55.631 13.248a40.051 40.051 0 0 0 12.214-8.148Zm50.462-73.144c26.609-11.412 37.688-45.34 24.697-75.63-12.994-30.298-45.214-45.661-71.823-34.25-26.606 11.412-37.68 45.343-24.687 75.641 12.992 30.291 45.206 45.65 71.813 34.239Zm89.129-22.248.003-.001a42.82 42.82 0 0 0 13.287-3.324c19.405-8.323 32.264-30.545 30.179-55.328-1.199-14.267-7.134-27.35-16.711-36.837-10.022-9.934-22.786-14.79-35.94-13.675-13.158 1.115-24.929 8.052-33.149 19.53-7.853 10.964-11.514 24.86-10.31 39.124 2.534 30.094 26.149 52.753 52.641 50.511Zm98.876-49.997-.011-.004c-24.158-5.674-49.085 11.967-55.565 39.332-6.462 27.369 7.921 54.269 32.056 59.965 8.804 2.08 17.714 1.058 25.794-2.408 14.085-6.041 25.657-19.507 29.787-36.916 6.459-27.369-7.921-54.27-32.061-59.97v.001Z" fill="#E47537"/></svg>
